public/assets/techs/express.svg

<svg width="20" height="20" viewBox="0 0 20 20" fill="none" xmlns="http://www.w3.org/2000/svg">
<path d="M20 15.4969C19.2725 15.6819 18.8225 15.505 18.4187 14.8988L15.5475 10.9263L15.1325 10.3763L11.7794 14.9119C11.3963 15.4575 10.9944 15.695 10.2794 15.5019L14.5731 9.73813L10.5756 4.53188C11.2631 4.39813 11.7381 4.46626 12.16 5.08188L15.1381 9.10376L18.1381 5.10376C18.5225 4.55813 18.9356 4.35063 19.6256 4.55188L18.0756 6.60688L15.9756 9.34126C15.7256 9.65376 15.76 9.86751 15.99 10.1694L20 15.4969ZM0.005 9.64188L0.35625 7.91438C1.3125 4.49563 5.23125 3.07501 7.93375 5.18751C9.51313 6.43001 9.90562 8.18751 9.8275 10.1563H0.925C0.79125 13.7 3.34188 15.8388 6.59375 14.7475C7.73438 14.3644 8.40625 13.4713 8.7425 12.3538C8.91312 11.7938 9.19563 11.7063 9.72188 11.8663C9.45313 13.2638 8.84687 14.4313 7.56562 15.1619C5.65125 16.2556 2.91875 15.9019 1.48125 14.3819C0.625 13.5 0.27125 12.3825 0.1125 11.1875C0.0875 10.99 0.0375 10.8019 0 10.6125C0.00333333 10.2892 0.005 9.96584 0.005 9.64251V9.64188ZM0.94125 9.40438H8.98625C8.93375 6.84188 7.33812 5.02188 5.1575 5.00626C2.76375 4.98751 1.045 6.76438 0.94125 9.40438V9.40438Z" fill="#EEEEEE"/>
</svg>

<svg xmlns="http://www.w3.org/2000/svg" width="20" height="20" fill="none" xmlns:v="https://vecta.io/nano"><path d="M20 15.497c-.727.185-1.177.008-1.581-.598l-2.871-3.972-.415-.55-3.353 4.536c-.383.546-.785.783-1.5.59l4.294-5.764-3.998-5.206c.688-.134 1.162-.066 1.584.55l2.978 4.022 3-4c.384-.546.797-.753 1.487-.552l-1.55 2.055-2.1 2.734c-.25.313-.216.526.014.828L20 15.497zM.005 9.642l.351-1.728c.956-3.419 4.875-4.839 7.578-2.727 1.579 1.242 1.972 3 1.894 4.969H.925c-.134 3.544 2.417 5.682 5.669 4.591 1.141-.383 1.813-1.276 2.149-2.394.171-.56.453-.647.979-.488-.269 1.398-.875 2.565-2.156 3.296-1.914 1.094-4.647.74-6.084-.78C.625 13.5.271 12.383.113 11.188.088 10.99.038 10.802 0 10.613l.005-.97v-.001zm.936-.238h8.045c-.053-2.562-1.648-4.382-3.829-4.398C2.764 4.988 1.045 6.764.941 9.404z" fill="#b3b3b3"/></svg>
